X: 31411
T: Paddy Ryan's Dream
R: reel
M: 4/4
K: Aminor
|:AEDE cABG|EGEC B,CDB,|A,G,A,B, CDEG|cABG ABcB:|
Aaa^g aecA|Ggg^f gdBG|Aaa^g aefd|ecdB ABcB|
Aaa^g aecA|Ggg^f gdBG|AcBd cedf|edcB ABcB|

